X: 18
T: Praeludia organi op. 5 – Adagio
C: Franciszek Walczyński
%%abc-version 2.0
%%abcx-abcm2ps-target-version 5.9.1 (29 Sep 2008)
%%abc-creator hum2abc beta
%%abcx-conversion-date 2021/10/04 07:38:40
%%abc-edited-by Andrzej Borzym
%%abc-edited-by Krzysztof Stępień
%%abcx-initial-encoding-date 2021-07-26
%%humdrum-veritas 900869103
%%humdrum-veritas-data 4139265674
%%linebreak <none>
%%barnumbers 0
L: 1/8
M: C
N: Derived from pl-kozmzk--mzk-m-159--007_walczynski-franciszek--praeludia-organi-op-5-adagio.krn
Q: "7. Adagio"
%%staves {1 2}
V: 1 clef=bass
V: 2 clef=bass
K: A
[V:1] [K:clef=bass]C2^B,CE2D2 & A,8- | 
[V:2] E,2^D,E,F,4 & A,,8- | 
[V:1] C2>=B,2A,2z2[K:clef=treble] & A,2G,2x2x2 | 
[V:2] E,2D,2C,2E,A, & A,,6z2 | 
[V:1] z EE4^D2 & x EDCB,2B,2- | 
[V:2] C2B,A,G,2F,A,- & z4z2B,,2 | 
[V:1] !fermata!E8 & B,8 | 
[V:2] A,2G,F,!fermata!G,4 & !fermata!F,,8 | 
[V:1] c2^Bce2d2 & A8- | 
[V:2] E2^DE2<F2=F & A,8 | 
[V:1] c2>B2A4 & A2G2F4 | 
[V:2] E2=D2C2^B,C & E,2>^E,2F,4 | 
[V:1] B4^B4 & F8 | 
[V:2] D2=B,2A,2^G,F, & D,8 | 
[V:1] c4!fermata!=d4 & ^E4=E4 | 
[V:2] G,8 & C,4!fermata!B,,4 | 
[V:1] z cBcd4- & x AGAB4 | 
[V:2] z4z E,F,G, & A,,2z2z4 | 
[V:1] dcde fe^da & B2<A2-A3B | 
[V:2] A,2B,C DCB,^D & z8 | 
[V:1] g2afe2d2 & e2>=d2c2B2 | 
[V:2] E=DCD2<E2^E & z8 | 
[V:1] c4BcdB & ^A4F=GF2 | 
[V:2] F=GFE D^A,B,D & z4z2D,2 | 
[V:1] =A2G2A4 & E2>D2C4- | 
[V:2] C2B,2A,4 & E,4A,,4- | 
[V:1] A2BAA2BA & C4D4- | 
[V:2] =G,4F,4 & A,,8- | 
[V:1] AGAB!fermata!c4 & D4C4 |]  
[V:2] =F,4!fermata!E,4 & !fermata!A,,8 |]  


